src/assets/filled/Subtitle.svg

<?xml version="1.0" encoding="UTF-8"?>
<svg width="24" height="24" viewBox="0 0 24 24" xmlns="http://www.w3.org/2000/svg">
 <path d="m16.19 2h-8.38c-3.64 0-5.81 2.17-5.81 5.81v8.37c0 3.65 2.17 5.82 5.81 5.82h8.37c3.64 0 5.81-2.17 5.81-5.81v-8.38c0.01-3.64-2.16-5.81-5.8-5.81zm-9.69 10.57h2.77c0.41 0 0.75 0.34 0.75 0.75s-0.34 0.75-0.75 0.75h-2.77c-0.41 0-0.75-0.34-0.75-0.75s0.34-0.75 0.75-0.75zm6.47 5.26h-6.47c-0.41 0-0.75-0.34-0.75-0.75s0.34-0.75 0.75-0.75h6.47c0.41 0 0.75 0.34 0.75 0.75s-0.33 0.75-0.75 0.75zm4.53 0h-1.85c-0.41 0-0.75-0.34-0.75-0.75s0.34-0.75 0.75-0.75h1.85c0.41 0 0.75 0.34 0.75 0.75s-0.34 0.75-0.75 0.75zm0-3.76h-5.53c-0.41 0-0.75-0.34-0.75-0.75s0.34-0.75 0.75-0.75h5.53c0.41 0 0.75 0.34 0.75 0.75s-0.34 0.75-0.75 0.75z"/>
</svg>

<svg width="24" height="24" viewBox="0 0 24 24"  xmlns="http://www.w3.org/2000/svg">
<path d="M16.19 2H7.81C4.17 2 2 4.17 2 7.81V16.18C2 19.83 4.17 22 7.81 22H16.18C19.82 22 21.99 19.83 21.99 16.19V7.81C22 4.17 19.83 2 16.19 2ZM6.5 12.57H9.27C9.68 12.57 10.02 12.91 10.02 13.32C10.02 13.73 9.68 14.07 9.27 14.07H6.5C6.09 14.07 5.75 13.73 5.75 13.32C5.75 12.91 6.09 12.57 6.5 12.57ZM12.97 17.83H6.5C6.09 17.83 5.75 17.49 5.75 17.08C5.75 16.67 6.09 16.33 6.5 16.33H12.97C13.38 16.33 13.72 16.67 13.72 17.08C13.72 17.49 13.39 17.83 12.97 17.83ZM17.5 17.83H15.65C15.24 17.83 14.9 17.49 14.9 17.08C14.9 16.67 15.24 16.33 15.65 16.33H17.5C17.91 16.33 18.25 16.67 18.25 17.08C18.25 17.49 17.91 17.83 17.5 17.83ZM17.5 14.07H11.97C11.56 14.07 11.22 13.73 11.22 13.32C11.22 12.91 11.56 12.57 11.97 12.57H17.5C17.91 12.57 18.25 12.91 18.25 13.32C18.25 13.73 17.91 14.07 17.5 14.07Z" />
</svg>
